X: 14835
T: Garech's Wedding
R: slip jig
M: 9/8
K: Edorian
|:DEE e2B G3|GAG ~A2G A2B|~E3 G2B e2f|1 gfe fed AB/c/d:|2 gfe fed e2f||
g2B BAB g2e|f2A AGA fga|g2B BAB g2e|fdd add fga|
g2B BAB g2e|f2A AGA fga|gfe fed efg|B/c/dB AGF E2D||

